X:1
T:Eileen Ogh
T:Eileen Ogh
T:Hotfiddle
C:Hotfiddle
L:1/8
Q:1/4=161
M:4/4
K:G
V:1 treble 
V:1
 B,6 |: ED EF GF GA | Bc BA G z E2 | D3 E F2 FG | AB AG F z D2 | ED EF GF GA | BA GB d z dc | %7
 B2 E2 GF ED |1 E z E z E2 B,2 :|2 E z E z E4 |: [ce]4 e3 e | d BGA B2 Bc | BA FG A2 AB | %13
 AG FG E4 | [ce]2 ef g2 ge | dB GA B2 GA | B z Bc BA FG | E z E z E4 :| %18

